!!!OTL: Allen Helden.
!!!OTL-incipit:WIE SOLLEN WIR EUCH DANKEN
!!!ARE: Europa, Mitteleuropa, Deutschland
!!!SCT: F0400
!!!TXL: @@DE
!!!YEM: Copyright 1995, estate of Helmut Schaffrath.
**kern	**text
*ICvox	*
*clefG2	*
*M4/4	*
*met(c)	*
*k[]	*
*C:	*
!LO:TX:a:t=P:only the highest voice encoded:problem	!
{4g	1._Wie
=1	=1
4e	ſol-
4c	-len
4e	wir
4g	euch
=2	=2
2cc/	dan-
4cc/}	-ken,
{4cc/	ihr
=3	=3
4dd/	Männer
8ff/L	.
8ddJ	.
4cc/	je-
4b/	-ner
=4	=4
2cc/	Ʒeit,
4r}	.
{4cc/	die
=5	=5
4ee/	ihr
4cc/	euch
4g/	fe-
4ee/	-ſten
=6	=6
2dd/	Mu-
4cc/}	-thes
{4cc/	dem
=7	=7
4.b/	Helden-
8b/	.
4.a	-tod
8a	ge-
=8	=8
2g	-weiht,
4r}	.
{4g	dem
=9	=9
4.dd/	Helden-
8dd/	.
8cc/L	-tod
8bJ	.
8aL	für
8bJ	.
=10	=10
2cc/	Eh-
4cc/}	-re,
{4cc/	für
=11	=11
4.dd/	Heimath,
8dd/	.
8cc/L	Pflicht
8bJ	.
8aL	und
8bJ	.
=12	=12
2cc/	Recht,
4r}	.
!LO:TX:a:t=Das ʒweite Mal Alle.	!
{4g	für
=13	=13
4.ee/	Weib
8ee/	und
4.dd/	Kind
8dd/	und
=14	=14
2cc/	Tu-
4dd/}	-gend
{8ff/L	und
8ddJ	.
=15	=15
4.cc/	künf-
8cc/	-ti-
4b/	-ges
8aL	Ge-
8bJ	.
=16	=16
2cc/	-ſchlecht!
4r}	.
{4g	für
=17	=17
4.ee/	Weib
8ee/	und
4.dd/	Kind
8dd/	und
=18	=18
2cc/	Tu-
4dd/}	-gend
{8ff/L	und
8ddJ	.
=19	=19
4.cc/	künf-
8cc/	-ti-
4b/	-ges
8aL	Ge-
8bJ	.
=20	=20
2cc/	-ſchlecht!
4r}	.
==;	==
!!!AGN: Vaterlands -, Heimat - Lied, nationalistisch
!!!ONB: ESAC (Essen Associative Code) Database: FINK
!!!AMT: simple quadruple
!!!AIN: vox
!!!EED: Helmut Schaffrath
!!!EEV: 1.0
!!!GTL: Vaterlands- und Heimathslieder
!!!source: Musikalischer Hausschatz der Deutschen. Eine Sammlung von über 1000 Liedern und Gesängen mit Singstimmen und Klavierbegleitung. Leipzig, Litterarisches Verlags-Haus.
!!!page: 245
!!!URL-scan: https://www.digitale-sammlungen.de/en/view/bsb11144622?page=234,235
!!!ENC: Anna Maria Matuszewska
!!!EEV: 2024/31/07
*-	*-
